X: 1
T: Miss Henny Mackenzie
M: 4/4
L: 1/8
R: reel
K: Amix
|:e| (3AAA  ^cA gBcA| Bggd BGGB| (3AAA  ^cA gBcA| Baae ^cAA:|
^g| ae^ca eaca| Bggd BGGg| ae^ca eaca| Baae ^cAA^g|
ae^ca eaca| Bggd BGGg| a^fge fde^c| ^faae ^cA A2||
